X:1
T:Title
%%score 1 2
L:1/8
Q:1/4=105
M:6/8
K:Ab
V:1 treble nm="Grand Piano, Soprano"
V:2 bass nm="Choir Pad, Bass"
V:1
 [CE] [CE]2 [Ec] [Ec]2 | [Fd] [Ec]2 [EB] [EB]2 | [Ed] [Ed]2 [DF] [DF]2 | [DG] [CF]2 [CE] [CE]2 | %4
w: By~Thomas~F.~McBeath,~1899 * * *||||
 [CE] [CE]2 [CA] [Ec]2 | [_Ge] [Fe]2 [Fd] [DF]2 | [DF] [Fd]2 [DF] [CE]2 | [CE] [DF]2 [DG] [CA]2- | %8
w: ||||
 [CA]6 |] %9
w: |
V:2
 A, A,2 A, A,2 | A, [E,A,]2 [E,G,] [E,G,]2 | [E,B,] [E,B,]2 [E,B,] [E,B,]2 | %3
 [E,B,] [A,,A,]2 [A,,A,] [A,,A,]2 | [A,,A,] [A,,A,]2 [A,,A,] [A,,A,]2 | %5
 [C,A,] [D,A,]2 [D,A,] [D,A,]2 | [D,A,] [D,A,]2 [D,A,] [A,,A,]2 | %7
 [A,,A,] [E,G,]2 [E,B,] [A,,A,]2- | [A,,A,]6 |] %9

